icon-themes/breeze_svg/cmd/sc_loadbasic.svg

<?xml version="1.0" encoding="UTF-8" standalone="no"?>
<!-- Created with Inkscape (http://www.inkscape.org/) -->

<svg
   xmlns:dc="http://purl.org/dc/elements/1.1/"
   xmlns:cc="http://creativecommons.org/ns#"
   xmlns:rdf="http://www.w3.org/1999/02/22-rdf-syntax-ns#"
   xmlns:svg="http://www.w3.org/2000/svg"
   xmlns="http://www.w3.org/2000/svg"
   xmlns:xlink="http://www.w3.org/1999/xlink"
   xmlns:sodipodi="http://sodipodi.sourceforge.net/DTD/sodipodi-0.dtd"
   xmlns:inkscape="http://www.inkscape.org/namespaces/inkscape"
   width="16"
   height="16"
   id="svg3049"
   version="1.1"
   inkscape:version="0.48.4 r9939"
   sodipodi:docname="sc_removewatch.svg"
   inkscape:export-filename="/home/uri/.kde/share/icons/NITRUX-KDE/16x16/actions/view-right-new.png"
   inkscape:export-xdpi="30"
   inkscape:export-ydpi="30">
  <defs
     id="defs3051">
    <linearGradient
       gradientTransform="translate(0,-1.9999941)"
       inkscape:collect="always"
       xlink:href="#linearGradient4021-3"
       id="linearGradient4123"
       gradientUnits="userSpaceOnUse"
       x1="3"
       y1="1045.3622"
       x2="15"
       y2="1045.3622" />
    <linearGradient
       id="linearGradient4021-3">
      <stop
         id="stop4023-0"
         offset="0"
         style="stop-color:#b3b3b3;stop-opacity:1;" />
      <stop
         id="stop4025-2"
         offset="1"
         style="stop-color:#4d4d4d;stop-opacity:1;" />
    </linearGradient>
  </defs>
  <sodipodi:namedview
     id="base"
     pagecolor="#ffffff"
     bordercolor="#666666"
     borderopacity="1.0"
     inkscape:pageopacity="0.0"
     inkscape:pageshadow="2"
     inkscape:zoom="45.254834"
     inkscape:cx="3.7573193"
     inkscape:cy="8.1393006"
     inkscape:document-units="px"
     inkscape:current-layer="layer1-6"
     showgrid="true"
     fit-margin-top="0"
     fit-margin-left="0"
     fit-margin-right="0"
     fit-margin-bottom="0"
     inkscape:window-width="1868"
     inkscape:window-height="1060"
     inkscape:window-x="50"
     inkscape:window-y="-3"
     inkscape:window-maximized="1"
     inkscape:showpageshadow="false"
     borderlayer="true"
     inkscape:snap-bbox="true"
     inkscape:snap-global="true">
    <inkscape:grid
       type="xygrid"
       id="grid4085" />
    <sodipodi:guide
       position="2.0000044,14.00003"
       orientation="12,0"
       id="guide4075" />
    <sodipodi:guide
       position="2.0000044,2.0000296"
       orientation="0,12"
       id="guide4077" />
    <sodipodi:guide
       position="14,9"
       orientation="-12,0"
       id="guide4079" />
    <sodipodi:guide
       position="14.000004,14.00003"
       orientation="0,-12"
       id="guide4081" />
  </sodipodi:namedview>
  <metadata
     id="metadata3054">
    <rdf:RDF>
      <cc:Work
         rdf:about="">
        <dc:format>image/svg+xml</dc:format>
        <dc:type
           rdf:resource="http://purl.org/dc/dcmitype/StillImage" />
        <dc:title></dc:title>
      </cc:Work>
    </rdf:RDF>
  </metadata>
  <g
     inkscape:label="Capa 1"
     inkscape:groupmode="layer"
     id="layer1"
     transform="translate(-421.71429,-531.79074)">
    <g
       transform="matrix(0.75,0,0,0.74999813,421.46429,-241.22897)"
       id="layer1-0"
       inkscape:label="Capa 1">
      <g
         transform="translate(6.2937501e-7,-2.041003e-4)"
         id="layer1-6"
         inkscape:label="Capa 1">
        <g
           transform="matrix(1.3333333,0,0,1.3333367,-561.95237,321.63957)"
           id="layer1-9"
           inkscape:label="Capa 1">
          <path
             id="rect3782"
             transform="translate(421.71429,531.79074)"
             d="m 3,2 0,12 3,0 1,0 0,-1 -1,0 -2,0 0,-10 8,0 0,4 0,4 -3.28125,0 2,-2 L 9.28125,9 7.5,10.78125 6.78125,11.5 7.5,12.21875 9.28125,14 l 1.4375,0 -2,-2 L 12,12 13,12 13,7 13,2 3,2 z"
             style="color:#000000;fill:#4d4d4d;fill-opacity:1;fill-rule:nonzero;stroke:none;stroke-width:2;marker:none;visibility:visible;display:inline;overflow:visible;enable-background:accumulate"
             inkscape:connector-curvature="0" />
        </g>
      </g>
    </g>
  </g>
</svg>

<svg xmlns="http://www.w3.org/2000/svg" viewBox="0 0 16 16">
     />
 <path 
     style="fill:#4d4d4d" 
     d="M 3 2 L 3 14 L 6 14 L 7 14 L 7 13 L 6 13 L 4 13 L 4 3 L 12 3 L 12 7 L 12 11 L 8.71875 11 L 10.71875 9 L 9.28125 9 L 7.5 10.78125 L 6.78125 11.5 L 7.5 12.21875 L 9.28125 14 L 10.71875 14 L 8.71875 12 L 12 12 L 13 12 L 13 7 L 13 2 L 3 2 z "
     />
 </svg>
